X: 3
M: 6/8
L: 1/8
K: G
V: 1
|:\
[B2D2G,2]B BcA | d2d def | gdc BAG | A2D DED |\
[B2D2G,2]B BcA | d2d def | gdc BcA | G2G G3 :|
|:\
V: 2 clef=bass middle=d
|:\
g3 d3 | B3 G2A | B3 e3 | d3 d3 |
g3 d3 | B3 g2a | b2c' d'2d | g3 G3 :|
|:\
d3 f3 | g3 z2z | G2A B2^c | d3 d3 |
f3 f3 | g3 c'3 | d'3 d3 | g3 G3 :|


